X: 1
T: Mrs. Bromley's Waltz
C: Zav Huscroft
O: as played by Cynthia MacLeod
S: Page from Concord Slow Scottish Session collection (Boston Harbor 2016)
R: waltz
Z: 2016 John Chambers <jc:trillian.mit.edu>
M: 3/4
L: 1/8
K: G
|:\
Bc BA GE | B,D G3 B, | CD G3 E | DE G2 A2 |\
Bc BA GE | B,D G3 B, | CD GB A{G}F |1 G3 DGA :|2 HG3 AGF ||
|: EG GE dB | AD BD c2 | cB G2 CD | B A2 B AG |\
EG GE d2 | DG GD d2 | CD DG AB |1 d3 BAG :|2 d4 "d.C."c2 |]
